X:77
T:77 The New Moon
C:Welch MS
I:abc2nwc
M:6/8
L:1/8
K:C
G|c2c c2G|A2G GAB|c2c dcd|e2c c2e|f2f e2e|dec BAG|AGF EFG|A2G G2:|
c|a2a gec|a2a g2e||a2a gec|B3cdc|a2a gec|fdc BAG|AGF EFG|A2G G2:|


